X:37
T:Eavesdropper
Z: id:dc-jig-31
M:6/8
L:1/8
K:G Major
E|D2B BAG|Bdd dBG|cee dBA|BAA AGE|!
D2B BAG|Bdd dBG|cee dBA|BGG G2:|!
d|gfg afd|efg dBG|cee dBA|BAA A2d|!
[1 gfg afd|efg dBG|cee dBA|BGG G2:|!
[2 gab afd|efg dBG|cee dBA|BGG G2|]!

